X: 85
T:Missa D'ung aultre amer / Agnus Dei
N: Derived from Jos0703e-Missa_Dung_aultre_amer-Agnus.krn
C: Josquin des Prez
%%abc-version 2.0
%%abcx-abcm2ps-target-version 5.9.1 (29 Sep 2008)
%%abc-creator hum2abc beta
%%abcx-conversion-date 2019/02/12 16:15:42
%%abc-edited-by Jesse Rodin
%%abc-edited-by Jesse Rodin; Victoria Chang 2012/02/27
%%abcx-initial-encoding-date 2012/02/27/
%%humdrum-veritas 1665131367
%%humdrum-veritas-data 497018089
%%linebreak <none>
%%barnumbers 0
L: 1/4
M: 2/1
Q: 1/2=120
%%staves [1 2 3 4]
V: 1 clef=treble
V: 2 clef=treble-8
V: 3 clef=treble-8
V: 4 clef=bass
K: F
[V:1] z8 | 
[V:2] z8 | 
[V:3] G8 | 
[V:4] G,8 | 
[V:1] z8 | 
[V:2] z8 | 
[V:3] F4G4 | 
[V:4] A,4B,4- | 
[V:1] z8 | 
[V:2] z8 | 
[V:3] B8 | 
[V:4] B,2A,G,B,4 | 
[V:1] z8 | 
[V:2] z8 | 
[V:3] c8 | 
[V:4] A,2G,F,E,4 | 
[V:1] F8 | 
[V:2] d8- | 
[V:3] d6c2 | 
[V:4] D,8- | 
[V:1] F4F4 | 
[V:2] d4d4 | 
[V:3] B4A4 | 
[V:4] D,8 | 
[V:1] G4G4 | 
[V:2] d8 | 
[V:3] G6FE | 
[V:4] z4G,4 | 
[V:1] A2A3GFE | 
[V:2] d8 | 
[V:3] D8 | 
[V:4] F,4F,4 | 
[V:1] D8 | 
[V:2] z4d4 | 
[V:3] B4A4 | 
[V:4] G,4F,4 | 
[V:1] z4B,4 | 
[V:2] d4d4 | 
[V:3] B4G4 | 
[V:4] G,4G,4 | 
[V:1] A,4A,4 | 
[V:2] d4d4 | 
[V:3] F2F4EF | 
[V:4] D,8 | 
[V:1] G,2D2E2F2 | 
[V:2] B4c4- | 
[V:3] G4C4- | 
[V:4] z8 | 
[V:1] G2G,3A,B,C | 
[V:2] c4d4 | 
[V:3] C4G4 | 
[V:4] z4G,,4 | 
[V:1] D4z2D2- | 
[V:2] z4d4 | 
[V:3] F2G4FE | 
[V:4] B,,4B,,4 | 
[V:1] DEFGA4 | 
[V:2] d4e4- | 
[V:3] F2D2C4 | 
[V:4] B,,4A,,4 | 
[V:1] z2B4AG | 
[V:2] e2d2g4 | 
[V:3] G8 | 
[V:4] G,,8 | 
[V:1] B2A4GF | 
[V:2] f4e2d2- | 
[V:3] D4F4 | 
[V:4] D,8 | 
[V:1] GFED^C3=B, | 
[V:2] d2cBcBAG | 
[V:3] E8 | 
[V:4] z4A,,4 | 
[V:1] D6E2 | 
[V:2] F4G4 | 
[V:3] D8- | 
[V:4] B,,4G,,4 | 
[V:1] F8 ||  
[V:2] A8 ||  
[V:3] D8 ||  
[V:4] D,8 ||  
[V:1]  [K:F] [M:2/1]D3EF2G2- | 
[V:2]  [K:F] [M:2/1]z8 | 
[V:3]  [K:F] [M:2/1]B8 | 
[V:4]  [K:F] [M:2/1]z8 | 
[V:1] GFEDE4 | 
[V:2] z8 | 
[V:3] c4c4 | 
[V:4] z8 | 
[V:1] D4z4 | 
[V:2] D3EF2G2- | 
[V:3] d8 | 
[V:4] B,,8 | 
[V:1] z8 | 
[V:2] G2ABc3B | 
[V:3] e8 | 
[V:4] C,4C,4 | 
[V:1] F6G2 | 
[V:2] AGB4AG | 
[V:3] d4f4- | 
[V:4] D,8 | 
[V:1] A4D4 | 
[V:2] F8 | 
[V:3] f4B4 | 
[V:4] D,4D,4 | 
[V:1] D2F3GA2 | 
[V:2] z4f4 | 
[V:3] A8 | 
[V:4] D,4D,4 | 
[V:1] D2F3GB2- | 
[V:2] f6e2 | 
[V:3] B8 | 
[V:4] D,4B,,4- | 
[V:1] B2A2G4 | 
[V:2] d4G4 | 
[V:3] f4e4 | 
[V:4] B,,4C,4 | 
[V:1] F4z4 | 
[V:2] z2d3cBA | 
[V:3] f4d4- | 
[V:4] D,8 | 
[V:1] F4G4 | 
[V:2] B2F2c4 | 
[V:3] d4e4 | 
[V:4] z4C,4 | 
[V:1] F4G4- | 
[V:2] A2B3AGF | 
[V:3] f4B4 | 
[V:4] D,4E,4 | 
[V:1] G2A4GF | 
[V:2] G2F2A4- | 
[V:3] c8 | 
[V:4] C,2F,4E,D, | 
[V:1] E8- | 
[V:2] A2G2A3G | 
[V:3] c8- | 
[V:4] C,8- | 
[V:1] E8 ||  
[V:2] G8 ||  
[V:3] c8 ||  
[V:4] C,8 ||  
[V:1]  [K:F] [M:2/1]D8 | 
[V:2]  [K:F] [M:2/1]z8 | 
[V:3]  [K:F] [M:2/1]B8 | 
[V:4]  [K:F] [M:2/1]z8 | 
[V:1] D4D4- | 
[V:2] z8 | 
[V:3] G4F4 | 
[V:4] z8 | 
[V:1] D4D4 | 
[V:2] z4z2d2 | 
[V:3] G8 | 
[V:4] G,4B,4- | 
[V:1] z4F4 | 
[V:2] d2d2d2d2 | 
[V:3] D8 | 
[V:4] B,2A,G,A,4 | 
[V:1] G4G4 | 
[V:2] B4c4- | 
[V:3] E8 | 
[V:4] G,6F,G, | 
[V:1] F3GA2GA | 
[V:2] c4d4 | 
[V:3] F8 | 
[V:4] A,G,F,E,D,4 | 
[V:1] BAGFE4 | 
[V:2] z4c4 | 
[V:3] G8 | 
[V:4] z2G,,2C,4 | 
[V:1] D4F3E | 
[V:2] d6c2 | 
[V:3] B4A4 | 
[V:4] B,,2D,4F,2- | 
[V:1] CDEFG3F | 
[V:2] A4G3A | 
[V:3] c8 | 
[V:4] F,2C,2_E,3D, | 
[V:1] D2F2G2A2 | 
[V:2] Bcd3ef2- | 
[V:3] d4B2c2 | 
[V:4] B,,3A,,G,,2F,,2 | 
[V:1] DEFGA2B2- | 
[V:2] fed2c2B2 | 
[V:3] d3cA2G2- | 
[V:4] B,,C,D,E,F,2G,2 | 
[V:1] BAG4^F2 | 
[V:2] _e3dd3c | 
[V:3] G2B2A4 | 
[V:4] _E,2G,2D,4 | 
[V:1] G8- | 
[V:2] BAG3F_ED | 
[V:3] G8- | 
[V:4] G,,6C,2- | 
[V:1] G8- | 
[V:2] C2D2_E4 | 
[V:3] G8- | 
[V:4] C,2B,,2C,3B,, | 
[V:1] G8 |]  
[V:2] D8 |]  
[V:3] G8 |]  
[V:4] G,,8 |]  



